X:115
T:Mrs Fraser of Foyer's Strathspey
S:Anderson's Pocket Companion, Perth 1807 (Glen.42) p49
M:4/4
L:1/8
Q:1/4=120
K:E Minor
d|E>ee>f   gefd|d>edD d3f|E>ee>f  g>efd|B>AG>F E2(Ed)|
  E>ee>f   gefd|d>edD d3f|E>ee>f Tg>fga|b>agf  e2e  ||
g/a/|bege be (c'/b/)(a/g/)|(f/g/).a/.b/ (a/g/).f/.e/ d2 d(g/a/)|\
     bege be (c'/b/)(a/g/)|(g/f/).e/.d/ (b/a/).g/.f/ e2 e(g/a/)|
     bege be (c'/b/)(a/g/)|(f/g/).a/.b/ (a/g/).f/.e/ d2 df     |\
     g>ef>d   e>dB>d      | A>Fd>F                {F}E2 E     |]

